X:180
T:Unknown Glasgow Jig 8
Z:robin.beech@mcgill.ca
R:jig
S:Padraig O'Neill
M:6/8
L:1/8
K:Em
ef | gfe fed | B2e-eef | gfe fed | e2b- bef | 
gfe fed | edB cBA | BAG AGF | D2E-E :: 
EF | GEE CEB, | DEE CEB, | DEE CEB, | B,CD E2F |
GEE CEB, | DEE CEB, | B,CD EGA | GED E :|
